svg/ko-fi.svg

<svg xmlns="http://www.w3.org/2000/svg" width="784" height="784" fill="none"><circle cx="391.66" cy="391.66" r="391.66" fill="#00B9FE"/><path fill="#fff" stroke="#000" stroke-linecap="round" stroke-linejoin="round" stroke-width="30" d="M586.053 412.101a280 280 0 0 1-39.782 1.808V283.714h27.124a54.25 54.25 0 0 1 45.207 21.699 64.56 64.56 0 0 1 14.466 41.591 60.577 60.577 0 0 1-47.015 65.097m112.112-90.413a118.4 118.4 0 0 0-17.527-46.288 118.4 118.4 0 0 0-34.912-35.084A138.7 138.7 0 0 0 566.162 215H168.343a23.14 23.14 0 0 0-19.891 21.699v5.425s-1.808 175.402 1.808 271.24a59.49 59.49 0 0 0 59.673 56.056s182.635 0 269.432-1.808h12.658c50.631-12.658 54.248-59.673 54.248-84.988 99.455 3.616 169.977-66.906 151.894-160.936"/><path fill="#FF5E5B" d="M343.749 493.473c5.424 1.809 7.233 0 7.233 0s63.289-57.864 92.221-92.221c25.316-30.741 27.124-79.564-16.274-99.455-43.399-19.891-79.564 21.699-79.564 21.699a71.24 71.24 0 0 0-47.503-25.817 71.24 71.24 0 0 0-51.952 14.968l-1.808 1.808c-21.699 23.507-14.466 63.289 1.808 84.989a1088 1088 0 0 0 92.222 90.413z"/><path fill="url(#a)" d="M347.358 495.282a6.69 6.69 0 0 0 5.424-1.809s63.29-57.864 92.222-92.221c25.316-30.741 27.124-79.564-16.274-99.455-43.399-19.891-79.564 21.699-79.564 21.699a71.24 71.24 0 0 0-47.503-25.817 71.24 71.24 0 0 0-51.952 14.968l-1.808 1.808c-21.699 23.507-14.466 63.289 1.808 84.989a1132 1132 0 0 0 94.03 92.221c0 3.617 1.808 3.617 3.617 3.617"/><defs><linearGradient id="a" x1="286.057" x2="361.1" y1="162.38" y2="392.753" gradientUnits="userSpaceOnUse"><stop stop-color="#FF4EA3"/><stop offset="1" stop-color="#FF5E5B"/></linearGradient></defs></svg>

<svg xmlns="http://www.w3.org/2000/svg" width="784" height="784" fill="none" viewBox="0 0 784 784"><circle cx="391.66" cy="391.66" r="391.66" fill="#00B9FE"/><path fill="#fff" stroke="#000" stroke-linecap="round" stroke-linejoin="round" stroke-width="30" d="M586.053 412.101C572.852 413.648 559.558 414.252 546.271 413.909V283.714H573.395C582.12 283.427 590.786 285.249 598.656 289.027C606.526 292.805 613.368 298.426 618.602 305.413C628.149 317.153 633.269 331.873 633.068 347.004C634.531 361.723 630.557 376.47 621.896 388.462C613.235 400.454 600.486 408.862 586.053 412.101ZM698.165 321.688C695.648 305.196 689.675 289.422 680.638 275.4C671.602 261.377 659.704 249.421 645.726 240.316C622.434 223.905 594.654 215.066 566.162 215H168.343C163.025 215.748 158.132 218.321 154.504 222.28C150.875 226.239 148.735 231.336 148.452 236.699V242.124C148.452 242.124 146.644 417.526 150.26 513.364C151.14 528.571 157.819 542.861 168.92 553.29C180.022 563.719 194.701 569.492 209.933 569.42C209.933 569.42 392.568 569.42 479.365 567.612H492.023C542.654 554.954 546.271 507.939 546.271 482.624C645.726 486.24 716.248 415.718 698.165 321.688Z"/><path fill="#FF5E5B" d="M343.749 493.473C349.173 495.282 350.982 493.473 350.982 493.473C350.982 493.473 414.271 435.609 443.203 401.252C468.519 370.511 470.327 321.688 426.929 301.797C383.53 281.906 347.365 323.496 347.365 323.496C335.538 308.983 318.474 299.709 299.862 297.679C281.251 295.648 262.588 301.025 247.91 312.647L246.102 314.455C224.403 337.962 231.636 377.744 247.91 399.444C276.834 431.381 307.628 461.572 340.132 489.857L343.749 493.473Z"/><path fill="url(#paint0_linear)" d="M347.358 495.282C348.339 495.4 349.335 495.299 350.273 494.986C351.211 494.674 352.068 494.157 352.782 493.473C352.782 493.473 416.072 435.609 445.004 401.252C470.32 370.511 472.128 321.688 428.73 301.797C385.331 281.906 349.166 323.496 349.166 323.496C337.339 308.983 320.275 299.709 301.663 297.679C283.052 295.648 264.389 301.025 249.711 312.647L247.903 314.455C226.204 337.962 233.437 377.744 249.711 399.444C279.237 431.984 310.634 462.776 343.741 491.665C343.741 495.282 345.549 495.282 347.358 495.282Z"/><defs><linearGradient id="paint0_linear" x1="286.057" x2="361.1" y1="162.38" y2="392.753" gradientUnits="userSpaceOnUse"><stop stop-color="#FF4EA3"/><stop offset="1" stop-color="#FF5E5B"/></linearGradient></defs></svg>
